X:100
T:The Humours of (Off To) California
N:Hornpipe  Allan's #100  pp25
N:Trad/Anon
N:CONVERTED FROM NOTEWORTHY COMPOSER  (WWW.NOTEWORTHYSOFTWARE.COM) BY
N:ABC2NWC (HTTP://MEMBERS.AOL.COM/ABACUSMUSIC/), WITH
Z: (INTO NWC) VINCE BRENNAN 2002   (WWW.SOSYOURMOM.COM)
I:abc2nwc
M:4/4
L:1/8
K:G
((3DEF)|G3/2F/2G3/2B/2 A3/2G/2E3/2D/2|G3/2B/2d3/2g/2 e2d2|g3/2f/2g3/2d/2 e3/2d/2B3/2G/2|A3/2B/2A3/2G/2 E2 ((3DE)F|
G3/2F/2G3/2B/2 A3/2G/2E3/2F/2|G3/2B/2d3/2g/2 e2 ((3def)|g3/2f/2g3/2d/2 e3/2d/2B3/2G/2|A3/2G/2E3/2F/2 G2:|
|: ((3def)|g3/2f/2e3/2g/2f3/2e/2d3/2f/2|e3/2d/2e3/2f/2 e3/2d/2B3/2d/2|g3/2f/2g3/2d/2 e3/2d/2B3/2G/2|A3/2B/2A3/2G/2 E2 ((3DEF)|
G3/2F/2G3/2B/2 A3/2G/2E3/2F/2|G3/2B/2d3/2g/2 e2 ((3def)|g3/2f/2g3/2d/2 e3/2d/2B3/2G/2|A3/2G/2E3/2F/2 G2:|
